X:1
T:He Abides
T:He Abides
T:Doc McKinley Shanks
T:Herbert Emery Buffum, 1922
T:Public Domain Courtesy of the Cyber Hymnal™
T:Public Domain Courtesy of the Cyber Hymnal™
C:Doc McKinley Shanks
Z:Public Domain
Z:Courtesy of the Cyber Hymnal™
%%score 1 2
L:1/8
Q:1/4=95
M:4/4
K:G
V:1 treble 
V:2 bass 
V:1
 [B,D]>[B,D] | [B,G]>[A,F] [B,G]>[CA] [DB]2 [=FA]>[FB] | [EA]>[CE] [CE]>[C^D] [CE]2 [CE]>[CG] | %3
w: 1.~I’m re-|joic- ing night and day As I|walk the nar- row way, For the|
w: 2.~Once my|heart was full of sin, Once I|had no peace with- in, Till I|
w: 3.~He is|with me ev- ’ry- where, And He|knows my ev- ’ry care; I’m as|
w: 4.~There’s no|thirst- ing for the things Of the|world— they’ve tak- en wings. Long a-|
 [CF]>[CF] [CF]>[CE] [CD]>[CD] [CE]>[Ec] | [DB]6 [B,D]>[B,D] | %5
w: hand of God in all my life I|see. And the|
w: heard how Je- sus died up- on the|tree. Then I|
w: hap- py as a bird and just as|free. For the|
w: go I gave them up, and in- stant-|ly All my|
 [B,G]>[A,F] [B,G]>[CA] [DB]2 [=FA]>[FB] | [EA]>[CE] [CE]>[C^D] [CE]2 [CE]>[CG] | %7
w: rea- son of my bliss, Yes, the|se- cret all is this: that the|
w: fell down at His feet, And there|came a peace so sweet. Now the|
w: Spir- it has con- trol; Je- sus|sat- is- fies my soul, Since the|
w: night was turned to day, All my|bur- dens rolled a- way. Now the|
 [CF]>[CE] [CD]>[Ec] [DB]2 [CA]2 | [B,G]6 ||"^Refrain" [GB]>[Ac] | [Bd]6 [GB]>[Ac] | %11
w: Com- fort- er a- bides with|me.|||
w: Com- fort- er a- bides with|me.|He a-|bides, He a-|
w: Com- fort- er a- bides with|me.|||
w: Com- fort- er a- bides with|me.|||
 [Bd]6 [FA]>[GB] | [Fc]>[Fc] [Fc]>[FB] [FA]2 [Fd]2 | [GB]6 [B,D]>[B,D] | %14
w: |||
w: bides. Hal- le-|lu- jah, He a- bides with|me! I’m re-|
w: |||
w: |||
 [B,G]>[A,F] [B,G]>[CA] [DB]2 [=FA]>[FB] | [Ec]>[CE] [CE]>[C^D] [CE]2 [CE]>[CG] | %16
w: ||
w: joic- ing night and day As I|walk the nar- row way, For the|
w: ||
w: ||
 [CF]>[CE] [CD]>[Ec] [DB]2 [CA]2 | [B,G]6 |] %18
w: ||
w: Com- fort- er a- bides with|me.|
w: ||
w: ||
V:2
 [G,,G,]>[G,,G,] | [G,,D,]>[G,,D,] [G,,D,]>[G,,D,] [G,,G,]2 [G,,G,]>[G,,G,] | %2
w: ~ ~|~ ~ ~ ~ ~ ~ ~|
 [C,G,]>[C,G,] [C,G,]>[C,F,] [C,G,]2 [C,G,]>[C,E,] | %3
w: ~ ~ ~ ~ ~ ~ ~|
 [D,A,]>[D,A,] [D,A,]>[D,A,] [D,F,]>[D,F,] [D,F,]>[D,F,] | [G,,G,]6 [G,,G,]>[G,,G,] | %5
w: ~ ~ ~ ~ ~ ~ ~ ~|~ ~ ~|
 [G,,D,]>[G,,D,] [G,,D,]>[G,,D,] [G,,G,]2 [G,,G,]>[G,,G,] | %6
w: ~ ~ ~ ~ ~ ~ ~|
 [C,G,]>[C,G,] [C,G,]>[C,G,] [C,G,]2 [C,G,]>[C,E,] | [D,A,]>[D,G,] [D,F,]>[D,F,] [D,G,]2 [D,F,]2 | %8
w: ~ ~ ~ ~ ~ ~ ~|~ ~ ~ ~ ~ ~|
 [G,,G,]6 || z2 | z2 [G,D]>[G,D] [G,D]2 z2 | z2 [G,D]>[G,D] [G,D]2 [D,D]>[D,D] | %12
w: ~||He a- bides,|He a- bides * *|
 [D,D]>[D,D] [D,D]>[D,D] [D,D]2 [D,D]2 | [G,D]6 [G,,G,]>[G,,G,] | %14
w: ||
 [G,,D,]>[G,,D,] [G,,D,]>[G,,D,] [G,,G,]2 [G,,G,]>[G,,G,] | %15
w: |
 [C,G,]>[C,G,] [C,G,]>[C,F,] [C,G,]2 [C,G,]>[C,E,] | [D,A,]>[D,G,] [D,F,]>[D,F,] [D,G,]2 [D,F,]2 | %17
w: ||
 [G,,D,]6 |] %18
w: |

